X: 3
P: Part 3
M: 4/4
L: 1/8
K: F
|: "F"F4 F2 G2|"F"A4 A2 c2|"Bb"d4 d3 e|"F"d2 c2 A2 F2|"G"G4 G3 A|G2 D2 E2 F2|"Gm"G4 G3 A|"C7"G2 E2 ED C2||
"F"F4 F2 G2|"F"A4 A2 c2|"Bb"d4 d3 e|"F"d2 c2 A2 F2|"G"G4 G3 A|G2 D2 E2 F2|"C"A2 G2 E2 C2| [1 "F" F2 C2 "C"D2 E2 :| [2 "F  (D7)"F6 |]

